img/google-plus.svg

<svg width="16" height="17" viewBox="0 0 16 17" fill="none" xmlns="http://www.w3.org/2000/svg">
<path d="M15.9583 8.92505C15.9583 8.42505 15.8958 8.05005 15.8333 7.6438H8.45825V10.3H12.8333C12.677 11.4563 11.5208 13.6438 8.45825 13.6438C5.802 13.6438 3.64575 11.4563 3.64575 8.73755C3.64575 4.3938 8.77075 2.3938 11.5208 5.05005L13.6458 3.0188C12.302 1.7688 10.5208 0.987549 8.45825 0.987549C4.14575 0.987549 0.708252 4.4563 0.708252 8.73755C0.708252 13.05 4.14575 16.4875 8.45825 16.4875C12.927 16.4875 15.9583 13.3625 15.9583 8.92505Z" fill="#5A7184"/>
</svg>

<svg width="16" height="17" fill="none" xmlns="http://www.w3.org/2000/svg"><path d="M15.958 8.925c0-.5-.062-.875-.125-1.281H8.458V10.3h4.375c-.156 1.156-1.312 3.344-4.375 3.344-2.656 0-4.812-2.188-4.812-4.906 0-4.344 5.125-6.344 7.875-3.688l2.125-2.031A7.517 7.517 0 008.458.988a7.729 7.729 0 00-7.75 7.75 7.709 7.709 0 007.75 7.75c4.469 0 7.5-3.125 7.5-7.563z" fill="#5A7184"/></svg>
